Yaru++/mimetypes/scalable/application-x-musescore3.svg

<svg height="256" viewBox="0 0 67.73 67.73" width="256" xmlns="http://www.w3.org/2000/svg" xmlns:xlink="http://www.w3.org/1999/xlink"><linearGradient id="a" gradientUnits="userSpaceOnUse" x1="88" x2="488" y1="88" y2="488"><stop offset="0" stop-opacity=".588235"/><stop offset=".88" stop-opacity="0"/><stop offset="1"/></linearGradient><filter id="b" color-interpolation-filters="sRGB" height="1.087725" width="1.105998" x="-.052999" y="-.043863"><feGaussianBlur stdDeviation="8.4801079"/></filter><filter id="c" color-interpolation-filters="sRGB" height="1.021931" width="1.0265" x="-.01325" y="-.010966"><feGaussianBlur stdDeviation="2.120027"/></filter><path d="m189.84323 74c-70.59344 0-78.18921 7.250835-77.84323 77.98706v146.01294 146.01294c-.34598 70.73623 7.24979 77.98706 77.84323 77.98706h196.31354c70.59344 0 76.00668-7.27384 77.84323-77.98706v-146.01294-146.01294c0-70.737067-7.24979-77.98706-77.84323-77.98706z" filter="url(#c)" opacity=".1" transform="matrix(.13228516 0 0 .13228516 -4.409451 -6.038882)"/><path d="m189.84323 74c-70.59344 0-78.18921 7.250835-77.84323 77.98706v146.01294 146.01294c-.34598 70.73623 7.24979 77.98706 77.84323 77.98706h196.31354c70.59344 0 77.84323-7.24999 77.84323-77.98706v-146.01294-146.01294c0-70.737067-7.24979-77.98706-77.84323-77.98706z" fill="url(#a)" filter="url(#b)" opacity=".3" transform="matrix(.13228516 0 0 .13228516 -4.409451 -6.038882)"/><path d="m46.671928 3.4856497c9.338467 0 10.343273.9591779 10.297505 10.3165303v19.315345 19.315344c.04577 9.357355-.959038 10.316531-10.297505 10.316531h-25.969365c-9.338464 0-10.297505-.959068-10.297505-10.316531v-19.315344-19.315345c0-9.3574638.959041-10.3165303 10.297505-10.3165303z" fill="#1f74bd"/><g fill="#fff"><path d="m33.688674 3.4856497v59.2637503h12.984614c9.338464 0 10.054627-.962123 10.297574-10.316435v-19.31544-19.315442c0-9.3574636-.95911-10.3164333-10.297574-10.3164333z" opacity=".08"/><path d="m10.406486 33.117525v19.31544c-.04577 9.357354.959108 10.316435 10.297574 10.316435h25.969228c9.338464 0 10.054627-.962123 10.297574-10.316435v-19.31544z" opacity=".08"/><path d="m41.096643 62.7494 15.874219-15.874219v5.948567c-.01384 8.994282-1.006077 9.925652-10.099734 9.925652z" opacity=".204"/><path d="m23.856759 26.550286c1.79607 0 3.723423.887604 4.701282 2.239776.977762-1.352172 2.907247-2.411276 4.703314-2.411276 3.051322 0 5.727403 2.22699 5.727403 6.491694l.06857 2.87639c0 4.421742 2.916234 4.987478 4.117011 4.987478 1.200776 0 4.007216-.803847 4.007216-4.57777v-7.960511c0-1.369313 2.065321-1.369313 2.065321 0v7.960511c-.07339 4.974697-3.67099 6.63345-6.072537 6.63345-2.401553 0-6.175471-1.420637-6.175471-7.043158l-.06968-3.042892c0-3.580555-2.503467-4.097739-3.667829-4.097739-1.834149 0-3.668296 1.524689-3.668296 4.097739v9.059924c0 .568514-.46104 1.026126-1.029552 1.026126h-.0046-.0046c-.568516 0-1.029646-.457612-1.029646-1.026126v-9.059924c0-2.57305-1.834057-4.097739-3.668202-4.097739-1.83411 0-3.668915.967848-3.667891 4.770115v8.387548c0 .565091-.461088 1.026126-1.029923 1.026126-.568488 0-1.029591-.457612-1.029591-1.026126v-8.387548c0-5.003043 2.759747-6.826068 5.727405-6.826068zm19.112626-7.204721c-2.621508 0-4.13758 2.230034-4.13758 4.288518 0 1.543832-2.057072 1.543832-2.057439 0 0-3.602357 2.715832-6.347006 6.195019-6.347006 3.479195 0 6.195758 2.744649 6.195758 6.347006 0 1.543832-2.063363 1.543832-2.063363 0 0-2.058484-1.510881-4.288518-4.132395-4.288518zm.19865 2.987362c.750666 0 1.358651.607913 1.358651 1.358611 0 .750697-.607985 1.358605-1.358651 1.358605-.75058 0-1.358568-.607908-1.358568-1.358605 0-.750698.607988-1.358611 1.358568-1.358611z" stroke-width=".926524"/></g><path d="m10.406486 51.903567v.529141c-.04577 9.357355.959107 10.316692 10.297574 10.316692h25.969228c9.338464 0 10.054627-.96238 10.297574-10.316692v-.529141c-.242947 9.354312-.95911 10.316692-10.297574 10.316692h-25.969228c-9.338467 0-10.343342-.959337-10.297574-10.316692z" opacity=".2"/><path d="m20.70406 3.4856497c-9.338466 0-10.343342.9593396-10.297574 10.3166913v.529141c-.045768-9.3573521.959108-10.3166917 10.297574-10.3166917h25.969228c9.338467 0 10.297574.9592282 10.297574 10.3166917v-.529141c0-9.3574631-.959107-10.3166913-10.297574-10.3166913z" fill="#fff" opacity=".4"/></svg>

<?xml version="1.0" encoding="UTF-8" standalone="no"?>
<svg
   xmlns:dc="http://purl.org/dc/elements/1.1/"
   xmlns:cc="http://creativecommons.org/ns#"
   xmlns:rdf="http://www.w3.org/1999/02/22-rdf-syntax-ns#"
   xmlns:svg="http://www.w3.org/2000/svg"
   xmlns="http://www.w3.org/2000/svg"
   xmlns:xlink="http://www.w3.org/1999/xlink"
   xmlns:sodipodi="http://sodipodi.sourceforge.net/DTD/sodipodi-0.dtd"
   xmlns:inkscape="http://www.inkscape.org/namespaces/inkscape"
   height="256"
   viewBox="0 0 67.73 67.73"
   width="256"
   version="1.1"
   id="svg42"
   sodipodi:docname="application-x-musescore3     .svg"
   inkscape:version="0.92.5 (2060ec1f9f, 2020-04-08)">
  <metadata
     id="metadata48">
    <rdf:RDF>
      <cc:Work
         rdf:about="">
        <dc:format>image/svg+xml</dc:format>
        <dc:type
           rdf:resource="http://purl.org/dc/dcmitype/StillImage" />
        <dc:title></dc:title>
      </cc:Work>
    </rdf:RDF>
  </metadata>
  <defs
     id="defs46">
    <linearGradient
       gradientUnits="userSpaceOnUse"
       y2="488"
       x2="488"
       y1="88"
       x1="88"
       id="linearGradient4358"
       xlink:href="#linearGradient4360"
       inkscape:collect="always" />
    <linearGradient
       inkscape:collect="always"
       id="linearGradient4360">
      <stop
         style="stop-color:#000000;stop-opacity:0.58823532"
         offset="0"
         id="stop4362" />
      <stop
         id="stop4364"
         offset="0.88"
         style="stop-color:#000000;stop-opacity:0" />
      <stop
         style="stop-color:#000000;stop-opacity:1"
         offset="1"
         id="stop4366" />
    </linearGradient>
    <filter
       height="1.0877253"
       y="-0.043862626"
       width="1.1059984"
       x="-0.052999184"
       id="filter4380"
       style="color-interpolation-filters:sRGB"
       inkscape:collect="always">
      <feGaussianBlur
         id="feGaussianBlur4382"
         stdDeviation="8.4801079"
         inkscape:collect="always" />
    </filter>
    <filter
       height="1.0219313"
       y="-0.010965657"
       width="1.0264996"
       x="-0.013249796"
       id="filter4346"
       style="color-interpolation-filters:sRGB"
       inkscape:collect="always">
      <feGaussianBlur
         id="feGaussianBlur4348"
         stdDeviation="2.120027"
         inkscape:collect="always" />
    </filter>
  </defs>
  <sodipodi:namedview
     pagecolor="#ffffff"
     bordercolor="#666666"
     borderopacity="1"
     objecttolerance="10"
     gridtolerance="10"
     guidetolerance="10"
     inkscape:pageopacity="0"
     inkscape:pageshadow="2"
     inkscape:window-width="1920"
     inkscape:window-height="1016"
     id="namedview44"
     showgrid="false"
     inkscape:zoom="0.921875"
     inkscape:cx="128"
     inkscape:cy="128"
     inkscape:window-x="0"
     inkscape:window-y="27"
     inkscape:window-maximized="1"
     inkscape:current-layer="svg42" />
  <linearGradient
     id="a"
     gradientTransform="matrix(0 -.11988342 .11987999 0 .362762 292.01605)"
     gradientUnits="userSpaceOnUse"
     x1="529.65515"
     x2="-35.310345"
     y1="401.58368"
     y2="119.09284">
    <stop
       offset="0"
       stop-color="#f2f2f2"
       id="stop2" />
    <stop
       offset="1"
       stop-color="#f9f9f9"
       id="stop4" />
  </linearGradient>
  <linearGradient
     id="b"
     gradientUnits="userSpaceOnUse"
     x1="88"
     x2="488"
     y1="88"
     y2="488">
    <stop
       offset="0"
       stop-opacity=".588235"
       id="stop7" />
    <stop
       offset=".88"
       stop-opacity="0"
       id="stop9" />
    <stop
       offset="1"
       id="stop11" />
  </linearGradient>
  <filter
     id="c"
     color-interpolation-filters="sRGB"
     height="1.087725"
     width="1.105998"
     x="-.052999"
     y="-.043863">
    <feGaussianBlur
       stdDeviation="8.4801079"
       id="feGaussianBlur14" />
  </filter>
  <filter
     id="d"
     color-interpolation-filters="sRGB"
     height="1.021931"
     width="1.0265"
     x="-.01325"
     y="-.010966">
    <feGaussianBlur
       stdDeviation="2.120027"
       id="feGaussianBlur17" />
  </filter>
  <path
     transform="matrix(0.13228516,0,0,0.13228516,-4.4094514,-6.0388816)"
     sodipodi:nodetypes="scccssscsss"
     inkscape:connector-curvature="0"
     id="rect4158-9"
     d="M 189.84323,74 C 119.24979,74 111.65402,81.250835 112,151.98706 V 298 444.01294 C 111.65402,514.74917 119.24979,522 189.84323,522 H 386.15677 C 456.75021,522 462.16345,514.72616 464,444.01294 V 298 151.98706 C 464,81.249993 456.75021,74 386.15677,74 Z"
     style="color:#000000;display:inline;overflow:visible;visibility:visible;opacity:0.1;fill:#000000;fill-opacity:1;fill-rule:nonzero;stroke:none;stroke-width:2;marker:none;filter:url(#filter4346);enable-background:accumulate" />
  <path
     transform="matrix(0.13228516,0,0,0.13228516,-4.4094514,-6.0388816)"
     style="color:#000000;display:inline;overflow:visible;visibility:visible;opacity:0.3;fill:url(#linearGradient4358);fill-opacity:1;fill-rule:nonzero;stroke:none;stroke-width:2;marker:none;filter:url(#filter4380);enable-background:accumulate"
     d="M 189.84323,74 C 119.24979,74 111.65402,81.250835 112,151.98706 V 298 444.01294 C 111.65402,514.74917 119.24979,522 189.84323,522 H 386.15677 C 456.75021,522 464,514.75001 464,444.01294 V 298 151.98706 C 464,81.249993 456.75021,74 386.15677,74 Z"
     id="path4350"
     inkscape:connector-curvature="0"
     sodipodi:nodetypes="scccssscsss" />
  <path
     sodipodi:nodetypes="scccssscsss"
     inkscape:connector-curvature="0"
     id="rect4158"
     d="m 46.671928,3.4856497 c 9.338467,0 10.343273,0.9591779 10.297505,10.3165303 V 33.117525 52.432869 C 57.015203,61.790224 56.010395,62.7494 46.671928,62.7494 H 20.702563 c -9.338464,0 -10.297505,-0.959068 -10.297505,-10.316531 V 33.117525 13.80218 c 0,-9.3574638 0.959041,-10.3165303 10.297505,-10.3165303 z"
     style="color:#000000;display:inline;overflow:visible;visibility:visible;fill:#1f74bd;fill-opacity:1;fill-rule:nonzero;stroke:none;stroke-width:0.26457033;marker:none;enable-background:accumulate" />
  <path
     sodipodi:nodetypes="ccsscssc"
     inkscape:connector-curvature="0"
     id="path4231"
     d="M 33.688674,3.4856497 V 62.7494 h 12.984614 c 9.338464,0 10.054627,-0.962123 10.297574,-10.316435 V 33.117525 13.802083 c 0,-9.3574636 -0.95911,-10.3164333 -10.297574,-10.3164333 z"
     style="color:#000000;display:inline;overflow:visible;visibility:visible;opacity:0.07999998;fill:#ffffff;fill-opacity:1;fill-rule:nonzero;stroke:none;stroke-width:0.26457033;marker:none;enable-background:accumulate" />
  <path
     sodipodi:nodetypes="ccssscc"
     id="path4255"
     d="m 10.406486,33.117525 v 19.31544 C 10.360716,61.790319 11.365594,62.7494 20.70406,62.7494 h 25.969228 c 9.338464,0 10.054627,-0.962123 10.297574,-10.316435 v -19.31544 z"
     style="color:#000000;display:inline;overflow:visible;visibility:visible;opacity:0.07999998;fill:#ffffff;fill-opacity:1;fill-rule:nonzero;stroke:none;stroke-width:0.26457033;marker:none;enable-background:accumulate"
     inkscape:connector-curvature="0" />
  <path
     sodipodi:nodetypes="cccsc"
     inkscape:connector-curvature="0"
     id="path4254"
     d="M 41.096643,62.7494 56.970862,46.875181 v 5.948567 C 56.957022,61.81803 55.964785,62.7494 46.871128,62.7494 Z"
     style="color:#000000;display:inline;overflow:visible;visibility:visible;opacity:0.20400002;fill:#ffffff;fill-opacity:1;fill-rule:nonzero;stroke:none;stroke-width:2.11656237;stroke-linecap:butt;stroke-linejoin:miter;stroke-miterlimit:4;stroke-dasharray:none;stroke-dashoffset:0;stroke-opacity:1;marker:none;enable-background:accumulate" />
  <path
     sodipodi:nodetypes="scsccsssscsccsssscsssscsssssssscsssssssss"
     id="path2"
     d="m 23.856759,26.550286 c 1.79607,0 3.723423,0.887604 4.701282,2.239776 0.977762,-1.352172 2.907247,-2.411276 4.703314,-2.411276 3.051322,0 5.727403,2.22699 5.727403,6.491694 l 0.06857,2.87639 c 0,4.421742 2.916234,4.987478 4.117011,4.987478 1.200776,0 4.007216,-0.803847 4.007216,-4.57777 v -7.960511 c 0,-1.369313 2.065321,-1.369313 2.065321,0 v 7.960511 c -0.07339,4.974697 -3.67099,6.63345 -6.072537,6.63345 -2.401553,0 -6.175471,-1.420637 -6.175471,-7.043158 l -0.06968,-3.042892 c 0,-3.580555 -2.503467,-4.097739 -3.667829,-4.097739 -1.834149,0 -3.668296,1.524689 -3.668296,4.097739 v 9.059924 c 0,0.568514 -0.46104,1.026126 -1.029552,1.026126 h -0.0046 -0.0046 c -0.568516,0 -1.029646,-0.457612 -1.029646,-1.026126 v -9.059924 c 0,-2.57305 -1.834057,-4.097739 -3.668202,-4.097739 -1.83411,0 -3.668915,0.967848 -3.667891,4.770115 v 8.387548 c 0,0.565091 -0.461088,1.026126 -1.029923,1.026126 -0.568488,0 -1.029591,-0.457612 -1.029591,-1.026126 v -8.387548 c 0,-5.003043 2.759747,-6.826068 5.727405,-6.826068 z m 19.112626,-7.204721 c -2.621508,0 -4.13758,2.230034 -4.13758,4.288518 0,1.543832 -2.057072,1.543832 -2.057439,0 0,-3.602357 2.715832,-6.347006 6.195019,-6.347006 3.479195,0 6.195758,2.744649 6.195758,6.347006 0,1.543832 -2.063363,1.543832 -2.063363,0 0,-2.058484 -1.510881,-4.288518 -4.132395,-4.288518 z m 0.19865,2.987362 c 0.750666,0 1.358651,0.607913 1.358651,1.358611 0,0.750697 -0.607985,1.358605 -1.358651,1.358605 -0.75058,0 -1.358568,-0.607908 -1.358568,-1.358605 0,-0.750698 0.607988,-1.358611 1.358568,-1.358611 z"
     style="display:inline;fill:#ffffff;fill-opacity:1;stroke-width:0.92652416;enable-background:new"
     inkscape:connector-curvature="0" />
  <path
     inkscape:connector-curvature="0"
     id="path945"
     d="m 10.406486,51.903567 v 0.529141 C 10.360716,61.790063 11.365593,62.7494 20.70406,62.7494 h 25.969228 c 9.338464,0 10.054627,-0.96238 10.297574,-10.316692 v -0.529141 c -0.242947,9.354312 -0.95911,10.316692 -10.297574,10.316692 H 20.70406 c -9.338467,0 -10.343342,-0.959337 -10.297574,-10.316692 z"
     style="color:#000000;display:inline;overflow:visible;visibility:visible;opacity:0.2;fill:#000000;fill-opacity:1;fill-rule:nonzero;stroke:none;stroke-width:0.26457033;marker:none;enable-background:accumulate" />
  <path
     inkscape:connector-curvature="0"
     id="path931"
     d="m 20.70406,3.4856497 c -9.338466,0 -10.343342,0.9593396 -10.297574,10.3166913 v 0.529141 C 10.360718,4.9741299 11.365594,4.0147903 20.70406,4.0147903 h 25.969228 c 9.338467,0 10.297574,0.9592282 10.297574,10.3166917 v -0.529141 c 0,-9.3574631 -0.959107,-10.3166913 -10.297574,-10.3166913 z"
     style="color:#000000;display:inline;overflow:visible;visibility:visible;opacity:0.4;fill:#ffffff;fill-opacity:1;fill-rule:nonzero;stroke:none;stroke-width:0.26457033;marker:none;enable-background:accumulate" />
</svg>
